!!!OTL: ES TRIEB EIN SCHAEFER DIE LAEMMELEIN AUS
!!!ARE: Europa, Mitteleuropa, Deutschland, Zerbst
!!!SCT: E0043
!!!YEM: Copyright 1995, estate of Helmut Schaffrath.
**kern
*ICvox
*Ivox
*M4/4
*k[]
*C:
{4G
=1
4c
4c
8d
8c
8B
8A
=2
8A
8G
8G
8G
4.G}
{8c
=3
8G
8F
8E
8F
8G
8F
8E
8D
=4
4E
8C
8C
4C}
{8E
8G
=5
8G
8F
8D
8F
4E}
{4G
=6
4c
8c
8c
4d
4d
=7
8.B
16B
8B
8B
4c}
==
!!!AGN: erzaehlendes Volks - Lied, Ritter - Sage, Ballade ?
!!!ONB: ESAC (Essen Associative Code) Database: ERK1
!!!AMT: simple quadruple
!!!AIN: vox
!!!EED: Helmut Schaffrath
!!!EEV: 1.0
*-
